X:484
L:1/8
M:4/4
K:Amin
 e2 A3 A3 e | eAAe eA e2 | e2 A2 A2 Bd | (e^fg)f{f} e2 d2 | e2 A2 A3 e | eAAe eA e2 | d2 G2 G3 B | 
 d3 e (ed) cB :| a2 e2 e3 a | aeea ge a2 | a2 e2 e3 ^g | (abc')b a2 ^g2 | a2 e2 e3 a | aeea ge a2 | 
 g2 G2 G3 B | d3 e{e} d2 cB | a2 e2 e3 a | aeea ge a2 | a2 e2 e3 ^g | (abc')b a2 ^g2 | 
 a2 e2{ab} c'3 b | agea ge{^g} a2 | g2 G2 G3 B | d3 e (ed)cB ||

